X:1
T:I Saw One Hanging on a Tree
T:I Saw One Hanging on a Tree
T:Edwin Othello Excell, 1917 
T:John Newton, 1779
T:Public Domain Courtesy of the Cyber Hymnal™
C:Edwin Othello Excell, 1917
Z:Public Domain
Z:Courtesy of the Cyber Hymnal™
%%score ( 1 2 ) ( 3 4 )
L:1/8
Q:1/4=160
M:6/4
K:D
V:1 treble 
V:2 treble 
V:3 bass 
V:4 bass 
V:1
 [A,D]2 | [DF]4 [DF]2 [DF]4 [A,E]2 | [A,E]4 [A,D]2 [A,D]4 [DF]2 | [FA]4 [FA]2 [FA]4 [EG]2 | %4
w: 1.~I|saw One hang- ing|on a tree, In|ag- o- ny and|
w: 2.~Sure,|ne- ver to my|lat- est breath, Can|I for- get that|
w: 3.~My|con- science felt and|owned the guilt, And|plunged me in des-|
w: 4.~A|se- cond look He|gave, which said, “I|free- ly all for-|
 [DF]6- [DF]4 [A,D]2 | [DF]4 [DF]2 [DF]4 [A,E]2 | [A,E]4 [A,D]2 [A,D]4 [DF]2 | %7
w: blood, * Who|fixed His lan- guid|eyes on me, As|
w: look; * It|seemed to charge me|with His death, Though|
w: pair, * I|saw my sins His|blood had spilt, And|
w: give; * This|blood is for thy|ran- som paid; I|
 [CE]4 [Ec]2 [Ec]4 [DB]2 | [CA]6- [CA]4 ||"^Refrain" [GA]2 | [Gc]4 [GB]2 [FA]4 [EG]2 | %11
w: near His cross I|stood. *|||
w: not a word He|spoke. *|O,|can it be, up-|
w: helped to nail Him|there. *|||
w: die that thou mayst|live.” *|||
 [DF]4 [GB]2 [FA]4 [DF]2 | [FA]4 [CE]2 [DF]4 [EG]2 | [DF]6- [DF]4 [Dd]2 | [Bd]4 [Ac]2 [Ac]4 [GB]2 | %15
w: ||||
w: on a tree, The|Sav- ior died for|me? * My|soul is thrilled, my|
w: ||||
w: ||||
 [GB]4 [FA]2 [FA]4 D2 | [DF]4 [DF]2 [DF]4 [CE]2 | D8- D2 |] %18
w: |||
w: heart is filled, To|think He died for|me! *|
w: |||
w: |||
V:2
 x2 | x12 | x12 | x12 | x12 | x12 | x12 | x12 | x10 || x2 | x12 | x12 | x12 | x12 | x12 | x10 D2 | %16
 x12 | D8- D2 |] %18
V:3
 [D,F,]2 | [D,A,]4 [D,A,]2 [A,,A,]4 [A,,G,]2 | [D,G,]4 [D,F,]2 [D,F,]4 [D,A,]2 | %3
 [A,,A,]4 [A,,A,]2 [A,,A,]4 [A,,A,]2 | [D,A,]6- [D,A,]4 [D,F,]2 | %5
 [D,A,]4 [D,A,]2 [A,,A,]4 [A,,G,]2 | [D,G,]4 [D,F,]2 [D,F,]4 [D,A,]2 | %7
 [E,A,]4 [E,A,]2 [E,A,]4 [E,^G,]2 | [A,,A,]6- [A,,A,]4 || [A,,A,]2 | %10
 [A,,A,]4 [A,,A,]2 [A,,A,]4 [A,,C]2 | [D,D]4 [D,D]2 [D,D]4 [D,A,]2 | %12
 [A,,A,]4 [A,,A,]2 [A,,A,]4 [A,,A,]2 | [D,A,]6- [D,A,]4 [F,A,]2 | [G,D]4 [G,D]2 [G,D]4 [G,D]2 | %15
 [D,D]4 [D,D]2 [D,D]4 [F,A,]2 | A,4 [A,,A,]2 [A,,A,]4 [A,,G,]2 | [D,F,]8- [D,F,]2 |] %18
V:4
 x2 | x12 | x12 | x12 | x12 | x12 | x12 | x12 | x10 || x2 | x12 | x12 | x12 | x12 | x12 | x12 | %16
 A,4 x8 | x10 |] %18

